X: 17263
T: Here Comes Tom Dukes A-riding
R: jig
M: 6/8
K: Dmajor
A|:d2A d2f|a3 def|g2e f2d|ecB A2A|
d2A d2f|a3 def|gfe d2c|d3d2A:|
|:d2d d2e|f3 d2d|e2e e2f|ecB A2A|
d2d d2g|a3 def|gfe d2c|1 d3d2A:|2 d3d2||

